X:11
T:Fancy Dress. WR1776.11, The
B:Wm.Randall CDs 1776
Z:vmp.Steve Mansfield 2015
M:6/8
L:1/8
W:Cast off 1 Cu. hands 4 round at bott: cast up & hands 4 at top
W:lead down 1 Cu. up again cast off right & left at top
Q:3/8=90
K:Bb
B,DF Bdf | bfe dcB | bag fed | edc cBA |
B,DF Bdf | bag fed | cde FGA | B3 B,3 :|
|: fdB AcF | Ggf fed | cde dcB | cdB AGF |
fdB Ac_E | DFB dfe | dcB cBA | B3 B,3 :|

